svg/运营管理.svg

<svg width="48" height="48" viewBox="0 0 48 48" fill="none" xmlns="http://www.w3.org/2000/svg">
<path d="M0 10C0 4.47715 4.47715 0 10 0H38C43.5229 0 48 4.47715 48 10V38C48 43.5229 43.5228 48 38 48H10C4.47715 48 0 43.5228 0 38V10Z" fill="url(#paint0_linear_1_460)"/>
<path opacity="0.7" d="M23.8249 34.6336C21.1508 34.6336 18.7291 33.5292 16.9898 31.7544C16.7689 31.5296 16.4692 31.3915 16.1537 31.3915H16.0905C15.0533 31.3915 14.5445 32.6339 15.2702 33.3794C17.4394 35.6117 20.4724 37 23.8249 37C27.1774 37 30.2104 35.6117 32.3796 33.3794C33.1014 32.6339 32.5966 31.3915 31.5593 31.3915H31.4962C31.1806 31.3915 30.8809 31.5296 30.66 31.7544C28.9207 33.5292 26.499 34.6336 23.8249 34.6336Z" fill="url(#paint1_linear_1_460)"/>
<path opacity="0.7" d="M34.0655 22.9984H34.1089C34.8819 22.9984 35.4578 22.253 35.2251 21.5115C34.3692 18.7664 32.551 16.4394 30.1609 14.9367C29.3957 14.4556 28.3979 15.0274 28.3979 15.9346V15.9819C28.3979 16.3724 28.5951 16.7431 28.9264 16.9522C30.8195 18.1472 32.2631 19.9891 32.9533 22.1662C33.1071 22.6553 33.5528 22.9984 34.0655 22.9984Z" fill="url(#paint2_linear_1_460)"/>
<path opacity="0.7" d="M19.2718 15.9662V15.9188C19.2718 15.0156 18.2779 14.4398 17.5127 14.921C15.1068 16.4237 13.2768 18.7546 12.417 21.5116C12.1882 22.2491 12.7601 22.9985 13.5331 22.9985H13.5765C14.0892 22.9985 14.5349 22.6593 14.6887 22.1663C15.379 19.9852 16.8304 18.1394 18.7314 16.9443C19.0667 16.7313 19.2718 16.3645 19.2718 15.9662Z" fill="url(#paint3_linear_1_460)"/>
<path d="M13.5498 24.0186H13.5537C14.4435 24.0186 15.2912 24.3685 15.9199 25.001H15.9209C16.5491 25.6254 16.8994 26.4818 16.8994 27.3682C16.8994 28.254 16.5493 29.1058 15.917 29.7344L15.916 29.7354C15.2912 30.3639 14.4393 30.7177 13.5498 30.7178C12.66 30.7178 11.8114 30.3678 11.1826 29.7354L11.0664 29.6152H11.0674C10.5095 29.0016 10.2003 28.1982 10.2002 27.3682C10.2002 26.5376 10.5079 25.7369 11.0674 25.1221L11.1826 25.001C11.8075 24.3724 12.6602 24.0186 13.5498 24.0186ZM34.4551 24.0186H34.459C35.3486 24.0187 36.1966 24.3686 36.8252 25.001H36.8262C37.4543 25.6254 37.8047 26.4818 37.8047 27.3682C37.8047 28.254 37.4545 29.1058 36.8223 29.7344L36.8213 29.7354C36.1965 30.3639 35.3445 30.7177 34.4551 30.7178C33.5653 30.7178 32.7166 30.3678 32.0879 29.7354L31.9707 29.6143C31.4135 29.0007 31.1046 28.2014 31.1045 27.3682C31.1045 26.4784 31.4545 25.6297 32.0869 25.001H32.0879C32.7128 24.3724 33.5655 24.0186 34.4551 24.0186ZM23.8203 11.2002C24.7095 11.2002 25.5589 11.5529 26.1924 12.1826C26.8206 12.8071 27.1699 13.6596 27.1699 14.5498C27.1699 15.4394 26.8207 16.2873 26.1885 16.916L26.1875 16.917C25.5626 17.5456 24.7099 17.8994 23.8203 17.8994C22.9862 17.8993 22.1887 17.5918 21.5742 17.0322L21.4541 16.917L21.334 16.793C20.7785 16.1798 20.4707 15.3817 20.4707 14.5498C20.4707 13.66 20.8207 12.8114 21.4531 12.1826H21.4541C22.0789 11.5541 22.9308 11.2003 23.8203 11.2002Z" fill="#38D165" stroke="url(#paint4_linear_1_460)" stroke-width="0.4"/>
<defs>
<linearGradient id="paint0_linear_1_460" x1="24" y1="0.604" x2="24" y2="48.544" gradientUnits="userSpaceOnUse">
<stop stop-color="#333333"/>
<stop offset="1" stop-color="#111111"/>
</linearGradient>
<linearGradient id="paint1_linear_1_460" x1="23.824" y1="31.3915" x2="23.824" y2="37" gradientUnits="userSpaceOnUse">
<stop stop-color="#E6E6E6"/>
<stop offset="1" stop-color="#C8E7C0"/>
</linearGradient>
<linearGradient id="paint2_linear_1_460" x1="31.8376" y1="14.7621" x2="31.8376" y2="22.9984" gradientUnits="userSpaceOnUse">
<stop stop-color="#E6E6E6"/>
<stop offset="1" stop-color="#C8E7C0"/>
</linearGradient>
<linearGradient id="paint3_linear_1_460" x1="15.8189" y1="14.7469" x2="15.8189" y2="22.9985" gradientUnits="userSpaceOnUse">
<stop stop-color="#E6E6E6"/>
<stop offset="1" stop-color="#C8E7C0"/>
</linearGradient>
<linearGradient id="paint4_linear_1_460" x1="24.0022" y1="11" x2="24.0022" y2="30.9177" gradientUnits="userSpaceOnUse">
<stop stop-color="white"/>
<stop offset="1" stop-color="#3CB660"/>
</linearGradient>
</defs>
</svg>

<svg viewBox="0 0 48 48" fill="currentColor"><path fill="currentColor" d="M0 10C0 4.477 4.477 0 10 0h28c5.523 0 10 4.477 10 10v28c0 5.523-4.477 10-10 10H10C4.477 48 0 43.523 0 38z"/><path fill="currentColor" d="M23.825 34.634a9.55 9.55 0 0 1-6.835-2.88 1.18 1.18 0 0 0-.836-.363h-.064c-1.037 0-1.546 1.243-.82 1.988A11.9 11.9 0 0 0 23.825 37c3.352 0 6.385-1.388 8.555-3.62.721-.746.217-1.989-.82-1.989h-.064c-.315 0-.615.139-.836.363a9.55 9.55 0 0 1-6.835 2.88" opacity=".7"/><path fill="currentColor" d="M34.066 22.998h.043c.773 0 1.349-.745 1.116-1.486a12 12 0 0 0-5.064-6.575c-.765-.481-1.763.09-1.763.998v.047c0 .39.197.761.528.97a9.6 9.6 0 0 1 4.027 5.214c.154.49.6.832 1.112.832" opacity=".7"/><path fill="currentColor" d="M19.272 15.966v-.047c0-.903-.994-1.48-1.76-.998a12 12 0 0 0-5.095 6.59c-.229.738.343 1.488 1.116 1.488h.043c.513 0 .959-.34 1.113-.833a9.6 9.6 0 0 1 4.042-5.222c.336-.213.54-.58.54-.978" opacity=".7"/><path fill="currentColor" stroke="currentColor" strokeWidth=".4" d="M13.55 24.019h.004c.89 0 1.737.35 2.366.982a3.34 3.34 0 0 1 .98 2.367c0 .886-.35 1.738-.983 2.366l-.001.001a3.34 3.34 0 0 1-2.366.983c-.89 0-1.739-.35-2.367-.983l-.117-.12h.001a3.344 3.344 0 0 1 0-4.493l.116-.121a3.34 3.34 0 0 1 2.367-.982Zm20.905 0h.004c.89 0 1.738.35 2.366.982h.001c.628.624.979 1.48.979 2.367 0 .886-.35 1.738-.983 2.366v.001a3.34 3.34 0 0 1-2.367.983c-.89 0-1.738-.35-2.367-.983l-.117-.12a3.34 3.34 0 0 1-.866-2.247c0-.89.35-1.738.982-2.367a3.34 3.34 0 0 1 2.368-.982ZM23.82 11.2c.89 0 1.739.353 2.372.983.629.624.978 1.477.978 2.367s-.35 1.737-.982 2.366v.001a3.34 3.34 0 0 1-2.368.982 3.33 3.33 0 0 1-2.246-.867l-.12-.115-.12-.124a3.34 3.34 0 0 1-.863-2.243c0-.89.35-1.739.982-2.367h.001a3.34 3.34 0 0 1 2.366-.983Z"/><defs><linearGradient id="a" x1="24" x2="24" y1=".604" y2="48.544" gradientUnits="userSpaceOnUse"><stop stopColor="currentColor"/><stop offset="1" stopColor="currentColor"/></linearGradient><linearGradient id="b" x1="23.824" x2="23.824" y1="31.392" y2="37" gradientUnits="userSpaceOnUse"><stop stopColor="currentColor"/><stop offset="1" stopColor="currentColor"/></linearGradient><linearGradient id="c" x1="31.838" x2="31.838" y1="14.762" y2="22.998" gradientUnits="userSpaceOnUse"><stop stopColor="currentColor"/><stop offset="1" stopColor="currentColor"/></linearGradient><linearGradient id="d" x1="15.819" x2="15.819" y1="14.747" y2="22.998" gradientUnits="userSpaceOnUse"><stop stopColor="currentColor"/><stop offset="1" stopColor="currentColor"/></linearGradient><linearGradient id="e" x1="24.002" x2="24.002" y1="11" y2="30.918" gradientUnits="userSpaceOnUse"><stop stopColor="currentColor"/><stop offset="1" stopColor="currentColor"/></linearGradient></defs></svg>
